X:23
T:NIGHT OF FUN -- JIG., THE
R:jig
N:Variant of A Fig For a Kiss (1st parts are same, slightly different turns)
B:Coles pg. 64.3
Z:John B. Walsh, <walsh:mat:h.ubc.ca> 5/19/02
M:9/8
L:1/8
K:G
uG2B E2B BAG|F2A D2F AGF|G2B E2B BAG|BdB AGF E2z|
G2B E2B BAG|F2A D2F AGF|G2B E2B BAG|BdB AGF E2z:|
e2f g2a baf|f2d d2f afd|e2f g2a baf|f2d afd e2B|
e2f g2a baf|f2d d2f afd|g2e f2d e2c|d2B AGF Ez z:|
